app/images/src/icons/box.svg

<svg width="50" height="50" viewBox="0 0 50 50" fill="none" xmlns="http://www.w3.org/2000/svg">
<g clip-path="url(#clip0_235_46642)">
<rect width="50" height="50" fill="#FBE0E0"/>
<path d="M18.9438 15.5219C15.6719 16.7453 13 17.7672 13 17.7813C13 17.8188 24.9016 22.2812 25 22.2812C25.0938 22.2812 29.5 20.6313 29.5 20.5984C29.5 20.5797 28.5016 20.1578 27.2828 19.6563L25.0656 18.7422L26.5375 18.1188L28.0094 17.4953L30.2172 18.4891C31.4359 19.0328 32.4531 19.4828 32.4813 19.4828C32.5656 19.4875 37 17.8141 37 17.7813C37 17.7344 25.0844 13.2813 24.9766 13.2859C24.925 13.2859 22.2109 14.2938 18.9438 15.5219Z" fill="url(#paint0_linear_235_46642)"/>
<path d="M13 26.0453V32.8094L18.5922 34.9047C21.6625 36.0578 24.1938 37 24.2172 37C24.2359 37 24.25 33.9578 24.25 30.2359V23.4719L18.6625 21.3766C15.5875 20.2234 13.0563 19.2812 13.0375 19.2812C13.0141 19.2812 13 22.3234 13 26.0453ZM17.5328 30.7047L19 31.2578V32.0266C19 32.6172 18.9859 32.7859 18.9438 32.7719C18.9109 32.7578 18.2359 32.5094 17.4438 32.2141L16 31.6797V30.9156C16 30.4984 16.0141 30.1562 16.0328 30.1562C16.0469 30.1562 16.7219 30.4047 17.5328 30.7047Z" fill="url(#paint1_linear_235_46642)"/>
<path d="M34.6938 20.1156L32.5 20.9406V22.8156V24.6953L31.0328 25.2484C30.2219 25.5484 29.5469 25.7969 29.5328 25.7969C29.5141 25.7969 29.5 24.9625 29.5 23.9453C29.5 22.9281 29.4859 22.0938 29.4672 22.0938C29.4438 22.0938 28.6 22.4031 27.5922 22.7828L25.75 23.4719V30.2359C25.75 33.9578 25.7641 37 25.7875 37C25.8063 37 28.3375 36.0578 31.4125 34.9047L37 32.8094V26.0453C37 20.6641 36.9859 19.2813 36.9438 19.2859C36.9109 19.2859 35.8984 19.6609 34.6938 20.1156Z" fill="url(#paint2_linear_235_46642)"/>
</g>
<defs>
<linearGradient id="paint0_linear_235_46642" x1="13" y1="17.7836" x2="37" y2="17.7836" gradientUnits="userSpaceOnUse">
<stop stop-color="#E81212"/>
<stop offset="1" stop-color="#FCCD05"/>
</linearGradient>
<linearGradient id="paint1_linear_235_46642" x1="13" y1="28.1406" x2="24.25" y2="28.1406" gradientUnits="userSpaceOnUse">
<stop stop-color="#E81212"/>
<stop offset="1" stop-color="#FCCD05"/>
</linearGradient>
<linearGradient id="paint2_linear_235_46642" x1="25.75" y1="28.143" x2="37" y2="28.143" gradientUnits="userSpaceOnUse">
<stop stop-color="#E81212"/>
<stop offset="1" stop-color="#FCCD05"/>
</linearGradient>
<clipPath id="clip0_235_46642">
<rect width="50" height="50" rx="25" fill="white"/>
</clipPath>
</defs>
</svg>

<svg width="50" height="50" fill="none" xmlns="http://www.w3.org/2000/svg"><g clip-path="url(#a)"><path fill="#FBE0E0" d="M0 0h50v50H0z"/><path d="M18.944 15.522C15.672 16.745 13 17.767 13 17.782c0 .037 11.902 4.5 12 4.5.094 0 4.5-1.65 4.5-1.684 0-.018-.998-.44-2.217-.942l-2.217-.914 1.472-.623 1.471-.624 2.208.994c1.219.544 2.236.994 2.264.994.085.005 4.519-1.669 4.519-1.702 0-.047-11.916-4.5-12.023-4.495-.052 0-2.766 1.008-6.033 2.236Z" fill="url(#b)"/><path d="M13 26.045v6.764l5.592 2.096A589.588 589.588 0 0 0 24.217 37c.019 0 .033-3.042.033-6.764v-6.764l-5.587-2.095a725.768 725.768 0 0 0-5.626-2.096c-.023 0-.037 3.042-.037 6.764Zm4.533 4.66 1.467.553v.769c0 .59-.014.759-.056.745-.033-.014-.708-.263-1.5-.558L16 31.68v-.764c0-.418.014-.76.033-.76.014 0 .689.249 1.5.549Z" fill="url(#c)"/><path d="m34.694 20.116-2.194.825v3.755l-1.467.552c-.811.3-1.486.549-1.5.549-.019 0-.033-.835-.033-1.852 0-1.017-.014-1.851-.033-1.851-.023 0-.867.31-1.875.689l-1.842.689v6.764c0 3.722.014 6.764.038 6.764.018 0 2.55-.942 5.625-2.095L37 32.809v-6.764c0-5.38-.014-6.764-.056-6.76-.033 0-1.046.376-2.25.83Z" fill="url(#d)"/></g><defs><linearGradient id="b" x1="13" y1="17.784" x2="37" y2="17.784" gradientUnits="userSpaceOnUse"><stop stop-color="#E81212"/><stop offset="1" stop-color="#FCCD05"/></linearGradient><linearGradient id="c" x1="13" y1="28.141" x2="24.25" y2="28.141" gradientUnits="userSpaceOnUse"><stop stop-color="#E81212"/><stop offset="1" stop-color="#FCCD05"/></linearGradient><linearGradient id="d" x1="25.75" y1="28.143" x2="37" y2="28.143" gradientUnits="userSpaceOnUse"><stop stop-color="#E81212"/><stop offset="1" stop-color="#FCCD05"/></linearGradient><clipPath id="a"><rect width="50" height="50" rx="25" fill="#fff"/></clipPath></defs></svg>
